X: 455
T: Camp Chase
B: jims roots
M:2/4
L:1/8
Q: 1/4=100
K:A
V:1 
|:x(3EFG |"A"A2 cA BAcA | EFAc BAFA | E2 EF EDCD |
"E"e2 (3fga b2 e2 | d2 bg edcd |"A"ea2 ec2 a2 | agfe dcBA |
"D"[F4d4] "A"[E4c4] | ABcA BAFA | E2 EF EDCD | "E"EFAB "A"A4 |]
V:1"E"EFAB "A"A2:| [2 "E"EFAB "A"A2 cd ||[P:B part
"A"e2 fg a2 e2 | c2 af edcd |
% abcbook-tune_id 6298c245f9296785ee051572


% abcbook-boost 0
% abcbook-tablature 
% abcbook-transpose 
% abcbook-lastupdated 1654178373625
% abcbook-soundfonts 
% abcbook-repeats 1


